X: 31154
T: Paddy Fahey's
R: reel
M: 4/4
K: Gmajor
dc|BGdB c2dc|BGdB cA A2|BGdB cBcd|ed (3efg fdcA|
BGdB c2dc|BGdB cA A2|fdfa gf (3def|ed (3efg fdfa||
g3a bgag|fddf ec c2|g3a bgag|fdde =f3d|
g3a bgag|fddf ec c2|d^cdf edeg|fdfa g4||

